X:60
T:How melancholy am I
T:Gur muladach a ta mi
R:Slow Air
S:Simon Fraser Collection
N:No.88
O:Scottish
M:C
L:1/8
Q:1/4=120
K:A Minor
(c/B/4A/4)|G<E E>^G A2 c>d|e2 e>c edd z/a/|g>ed>e A2 c>d|
e2 d>B cA A c/B/4A/4|G<E E>^G A2 ~c>d|(e2 e>)c edd z/a/|
g>ed>e A2 c>d|e2 d>B cA A||B|c>A G>E A2 c>d|e<a g>f edde|
a>^gac A2 c<d|e2 dAG>E A2 c>d|e<a g>f edd z/ a/8^g/8a/8b/8
|
c'>BA>G e2 d>B|c>de>c dcBc A||
